X:03
T:The Blackthorne Stick    jig  03
C:Trad/Anon
B:Allan's Irish Fiddler (pub. Mozart Allen,  Glascow) date unknown
Z:FROM ALLAN'S TO NOTEWORTHY, FROM NOTEWORTHY TO ABC, MIDI AND .TXT BY VINCE
BRENNAN Dec. 2002 (HTTP://WWW.SOSYOURMOM.COM)
I:abc2nwc
M:6/8
L:1/8
K:G
d|gfg ege|dBGAGE|DGG FGA|BAGA2d|
gfg age|dBGAGE|DGG FGA|BGG G2:|
|:d|edd gdd|edd gdd|ede gfe|dcBA2d|
gfg age|dBGG E|DGG FGA|BGG G2:|
